src/assets/answers.svg

<svg width="52" height="52" viewBox="0 0 52 52" fill="none" xmlns="http://www.w3.org/2000/svg">
<g filter="url(#filter0_d_3598_680)">
<rect x="2" y="1" width="48" height="48" rx="10" fill="white"/>
<rect x="2.5" y="1.5" width="47" height="47" rx="9.5" stroke="#EAECF0"/>
<path d="M27 15L18.0935 25.6879C17.7446 26.1064 17.5702 26.3157 17.5676 26.4925C17.5653 26.6461 17.6337 26.7923 17.7533 26.8889C17.8907 27 18.1632 27 18.708 27H26L25 35L33.9065 24.3121C34.2554 23.8936 34.4298 23.6843 34.4324 23.5075C34.4347 23.3539 34.3663 23.2077 34.2467 23.1111C34.1093 23 33.8368 23 33.292 23H26L27 15Z" stroke="#344054" stroke-width="2" stroke-linecap="round" stroke-linejoin="round"/>
</g>
<defs>
<filter id="filter0_d_3598_680" x="0" y="0" width="52" height="52" filterUnits="userSpaceOnUse" color-interpolation-filters="sRGB">
<feFlood flood-opacity="0" result="BackgroundImageFix"/>
<feColorMatrix in="SourceAlpha" type="matrix" values="0 0 0 0 0 0 0 0 0 0 0 0 0 0 0 0 0 0 127 0" result="hardAlpha"/>
<feOffset dy="1"/>
<feGaussianBlur stdDeviation="1"/>
<feColorMatrix type="matrix" values="0 0 0 0 0.0627451 0 0 0 0 0.0941176 0 0 0 0 0.156863 0 0 0 0.05 0"/>
<feBlend mode="normal" in2="BackgroundImageFix" result="effect1_dropShadow_3598_680"/>
<feBlend mode="normal" in="SourceGraphic" in2="effect1_dropShadow_3598_680" result="shape"/>
</filter>
</defs>
</svg>

<svg xmlns="http://www.w3.org/2000/svg" width="52" height="52" fill="none"><g filter="url(#a)"><rect width="48" height="48" x="2" y="1" fill="#fff" rx="10"/><rect width="47" height="47" x="2.5" y="1.5" stroke="#EAECF0" rx="9.5"/><path stroke="#344054" stroke-linecap="round" stroke-linejoin="round" stroke-width="2" d="m27 15-8.907 10.688c-.348.418-.523.628-.525.805a.5.5 0 0 0 .185.396c.138.111.41.111.955.111H26l-1 8 8.907-10.688c.348-.418.523-.628.525-.805a.5.5 0 0 0-.185-.396c-.138-.111-.41-.111-.955-.111H26z"/></g><defs><filter id="a" width="52" height="52" x="0" y="0" color-interpolation-filters="sRGB" filterUnits="userSpaceOnUse"><feFlood flood-opacity="0" result="BackgroundImageFix"/><feColorMatrix in="SourceAlpha" result="hardAlpha" values="0 0 0 0 0 0 0 0 0 0 0 0 0 0 0 0 0 0 127 0"/><feOffset dy="1"/><feGaussianBlur stdDeviation="1"/><feColorMatrix values="0 0 0 0 0.0627451 0 0 0 0 0.0941176 0 0 0 0 0.156863 0 0 0 0.05 0"/><feBlend in2="BackgroundImageFix" result="effect1_dropShadow_3598_680"/><feBlend in="SourceGraphic" in2="effect1_dropShadow_3598_680" result="shape"/></filter></defs></svg>
